; generated by PrusaSlicer 2.6.1+MacOS-arm64 on 2023-12-12 at 20:27:39 UTC


;
;
; 

; external perimeters extrusion width = 0.45mm
; perimeters extrusion width = 0.45mm
; infill extrusion width = 0.45mm
; solid infill extrusion width = 0.45mm
; top infill extrusion width = 0.40mm
; first layer extrusion width = 0.42mm

; external perimeters extrusion width = 0.45mm
; perimeters extrusion width = 0.45mm
; infill extrusion width = 0.45mm
; solid infill extrusion width = 0.45mm
; top infill extrusion width = 0.40mm
; first layer extrusion width = 0.42mm

; external perimeters extrusion width = 0.45mm
; perimeters extrusion width = 0.45mm
; infill extrusion width = 0.45mm
; solid infill extrusion width = 0.45mm
; top infill extrusion width = 0.40mm
; first layer extrusion width = 0.42mm

; external perimeters extrusion width = 0.45mm
; perimeters extrusion width = 0.45mm
; infill extrusion width = 0.45mm
; solid infill extrusion width = 0.45mm
; top infill extrusion width = 0.40mm
; first layer extrusion width = 0.42mm

M73 P0 R12
M73 Q0 S12
M201 X1000 Y1000 Z200 E5000 ; sets maximum accelerations, mm/sec^2
M203 X200 Y200 Z12 E120 ; sets maximum feedrates, mm / sec
M204 S1250 T1250 ; sets acceleration (S) and retract acceleration (R), mm/sec^2
M205 X8.00 Y8.00 Z0.40 E4.50 ; sets the jerk limits, mm/sec
M205 S0 T0 ; sets the minimum extruding and travel feed rate, mm/sec
;TYPE:Custom
M862.3 P "MK3S" ; printer model check
M862.1 P0.4 ; nozzle diameter check
M115 U3.12.2 ; tell printer latest fw version
G90 ; use absolute coordinates
M83 ; extruder relative mode
M104 S215 ; set extruder temp
M140 S60 ; set bed temp
M190 S60 ; wait for bed temp
M109 S215 ; wait for extruder temp
G28 W ; home all without mesh bed level
G80 ; mesh bed leveling

G1 Z0.2 F720
G1 Y-3 F1000 ; go outside print area
G92 E0
G1 X60 E9 F1000 ; intro line
G1 X100 E12.5 F1000 ; intro line

G92 E0
M221 S95

; Don't change E values below. Excessive value can damage the printer.

M907 E538 ; set extruder motor current
G21 ; set units to millimeters
G90 ; use absolute coordinates
M83 ; use relative distances for extrusion
M900 K0.05 ; Filament gcode LA 1.5
M900 K30 ; Filament gcode LA 1.0
M107
;LAYER_CHANGE
;Z:0.2
;HEIGHT:0.2
;BEFORE_LAYER_CHANGE
G92 E0.0
;0.2


G1 E-.8 F2100
G1 Z.4 F720
;AFTER_LAYER_CHANGE
;0.2
G1 X121.186 Y101.706 F10800
G1 Z.2 F720
G1 E.8 F2100
M204 S800
;TYPE:Skirt/Brim
;WIDTH:0.42
G1 F1200
G1 X121.768 Y101.133 E.02561
G1 X122.462 Y100.646 E.02658
M73 Q1 S12
G1 X123.37 Y100.231 E.0313
G1 X124.162 Y100.031 E.02561
G1 X125.029 Y99.961 E.02727
G1 X138.76 Y100.372 E.43072
G1 X139.732 Y100.602 E.03132
M73 P1 R12
G1 X140.639 Y101.02 E.03131
G1 X141.456 Y101.617 E.03173
G1 X142.209 Y102.466 E.03558
G1 X142.556 Y103.034 E.02087
G1 X142.883 Y103.816 E.02658
G1 X143.046 Y104.462 E.02089
G1 X143.127 Y105.275 E.02562
G1 X142.521 Y117.924 E.39706
G1 X142.333 Y118.926 E.03197
G1 X141.895 Y119.965 E.03535
G1 X141.323 Y120.783 E.0313
G1 X140.455 Y121.582 E.03699
G1 X139.285 Y122.212 E.04166
G1 X137.991 Y122.515 E.04167
G1 X125.346 Y122.845 E.39661
G1 X124.21 Y122.675 E.03602
G1 X123.115 Y122.237 E.03698
G1 X122.175 Y121.578 E.03599
G1 X121.391 Y120.697 E.03698
G1 X120.779 Y119.517 E.04168
G1 X120.498 Y118.217 E.0417
G1 X119.963 Y105.188 E.40886
G1 X120.044 Y104.081 E.0348
G1 X120.258 Y103.292 E.02563
G1 X120.688 Y102.391 E.0313
G1 X121.151 Y101.754 E.02469
M204 S1000
G1 X121.458 Y101.97 F10800
M204 S800
G1 F1200
G1 X122.014 Y101.418 E.02457
G1 X122.647 Y100.974 E.02424
G1 X123.487 Y100.59 E.02896
G1 X124.23 Y100.401 E.02404
G1 X125.023 Y100.338 E.02494
G1 X138.704 Y100.745 E.42915
G1 X139.603 Y100.957 E.02896
G1 X140.443 Y101.342 E.02897
G1 X141.19 Y101.885 E.02896
G1 X141.815 Y102.565 E.02896
G1 X142.152 Y103.081 E.01932
G1 X142.472 Y103.778 E.02405
G1 X142.674 Y104.524 E.02423
G1 X142.75 Y105.288 E.02407
G1 X142.146 Y117.887 E.39549
G1 X141.972 Y118.815 E.0296
G1 X141.563 Y119.785 E.03301
G1 X141.033 Y120.542 E.02897
G1 X140.239 Y121.273 E.03384
G1 X139.157 Y121.858 E.03857
G1 X138.568 Y122.038 E.01931
G1 X137.809 Y122.152 E.02406
G1 X125.365 Y122.469 E.3903
G1 X124.436 Y122.343 E.02939
G1 X123.44 Y121.981 E.03323
G1 X122.536 Y121.391 E.03385
G1 X121.796 Y120.613 E.03367
G1 X121.192 Y119.541 E.03858
G1 X121.001 Y118.955 E.01932
G1 X120.874 Y118.193 E.02422
G1 X120.34 Y105.172 E.40861
G1 X120.388 Y104.31 E.02707
M73 P2 R12
M73 Q2 S12
G1 X120.615 Y103.415 E.02895
G1 X120.937 Y102.712 E.02424
G1 X121.423 Y102.019 E.02654
M204 S1000
; printing object adapter2.stl id:0 copy 0
;WIPE_START
G1 F8640
G1 X122.014 Y101.418 E-.19463
G1 X122.647 Y100.974 E-.17853
G1 X123.487 Y100.59 E-.21326
G1 X124.23 Y100.401 E-.17702
G1 X124.388 Y100.388 E-.03656
;WIPE_END
G1 Z.6 F720
G1 X126.807 Y105.341 F10800
G1 Z.2 F720
G1 E.8 F2100
M204 S800
;TYPE:External perimeter
;WIDTH:0.45708
G1 F1200
G1 X126.799 Y105.44 E.00342
;WIDTH:0.466875
G1 X126.663 Y105.807 E.0138
G1 X126.408 Y106.206 E.01669
;WIDTH:0.463745
G1 X126.029 Y106.538 E.01763
G1 X125.667 Y106.727 E.01429
;WIDTH:0.462797
G1 X125.142 Y106.845 E.01879
;WIDTH:0.464061
G1 X124.625 Y106.812 E.01814
G1 X124.237 Y106.687 E.01427
;WIDTH:0.462425
G1 X123.781 Y106.392 E.01894
;WIDTH:0.464367
G1 X123.445 Y106.004 E.01799
G1 X123.261 Y105.639 E.01432
;WIDTH:0.462036
G1 X123.152 Y105.102 E.0191
;WIDTH:0.464656
G1 X123.194 Y104.596 E.01781
G1 X123.325 Y104.209 E.01433
;WIDTH:0.461634
G1 X123.635 Y103.751 E.01926
;WIDTH:0.46493
G1 X124.021 Y103.429 E.01764
G1 X124.389 Y103.251 E.01434
;WIDTH:0.461114
G1 X124.923 Y103.152 E.01889
;WIDTH:0.456069
G1 X125.413 Y103.194 E.01689
;WIDTH:0.46709
G1 X125.799 Y103.33 E.01443
G1 X126.226 Y103.616 E.01813
;WIDTH:0.456794
G1 X126.571 Y104.02 E.01828
;WIDTH:0.466989
G1 X126.742 Y104.38 E.01405
G1 X126.84 Y104.776 E.01438
;WIDTH:0.45646
G1 X126.846 Y104.911 E.00465
;WIDTH:0.45708
G1 X126.813 Y105.281 E.01279
M204 S1000
;WIPE_START
G1 F8640
G1 X126.799 Y105.44 E-.03686
G1 X126.663 Y105.807 E-.09037
G1 X126.408 Y106.206 E-.10934
G1 X126.029 Y106.538 E-.11634
G1 X125.667 Y106.727 E-.09429
G1 X125.142 Y106.845 E-.12425
G1 X124.625 Y106.812 E-.11962
G1 X124.237 Y106.687 E-.09412
G1 X124.183 Y106.652 E-.01481
;WIPE_END
G1 Z.6 F720
G1 X124.731 Y106.392 F10800
G1 Z.2 F720
G1 E.8 F2100
M204 S800
;WIDTH:0.454961
G1 F1200
G1 X124.58 Y106.378 E.0052
;WIDTH:0.454816
G1 X124.077 Y106.106 E.01958
G1 X123.72 Y105.661 E.01954
;WIDTH:0.462036
G1 X123.667 Y105.533 E.00483
G1 X123.559 Y105.031 E.01789
;WIDTH:0.455968
G1 X123.643 Y104.51 E.01812
;WIDTH:0.454516
G1 X123.916 Y104.051 E.01828
G1 X124.37 Y103.705 E.01954
;WIDTH:0.454802
G1 X124.907 Y103.563 E.01902
G1 X125.404 Y103.616 E.01712
;WIDTH:0.45666
G1 X125.866 Y103.848 E.01779
;WIDTH:0.456794
G1 X126.245 Y104.275 E.01965
;WIDTH:0.456934
G1 X126.429 Y104.816 E.01967
;WIDTH:0.45708
G1 X126.388 Y105.385 E.01965
;WIDTH:0.457227
G1 X126.13 Y105.895 E.01969
G1 X125.693 Y106.263 E.01968
;WIDTH:0.454961
G1 X125.148 Y106.433 E.01956
G1 X124.791 Y106.398 E.01229
M204 S1000
G1 X124.652 Y106.523 F10800
; stop printing object adapter2.stl id:0 copy 0
; printing object adapter2.stl id:1 copy 0
;WIPE_START
G1 F8640
G1 X124.58 Y106.378 E-.04894
G1 X124.077 Y106.106 E-.13204
G1 X123.72 Y105.661 E-.13173
G1 X123.667 Y105.533 E-.03199
G1 X123.559 Y105.031 E-.11857
G1 X123.643 Y104.51 E-.12185
G1 X123.916 Y104.051 E-.12331
G1 X124.231 Y103.811 E-.09157
;WIPE_END
G1 Z.6 F720
G1 X127.329 Y118.15 F10800
G1 Z.2 F720
G1 E.8 F2100
M204 S800
;WIDTH:0.45708
G1 F1200
G1 X127.32 Y118.249 E.00342
;WIDTH:0.466875
G1 X127.185 Y118.616 E.01379
G1 X126.93 Y119.015 E.01669
;WIDTH:0.463745
G1 X126.551 Y119.347 E.01763
G1 X126.189 Y119.536 E.01429
;WIDTH:0.462797
G1 X125.664 Y119.654 E.01879
;WIDTH:0.464061
G1 X125.146 Y119.622 E.01817
G1 X124.758 Y119.496 E.01429
;WIDTH:0.462425
G1 X124.302 Y119.201 E.01894
;WIDTH:0.464367
G1 X123.966 Y118.813 E.01799
G1 X123.783 Y118.448 E.01431
;WIDTH:0.462036
G1 X123.673 Y117.911 E.0191
;WIDTH:0.464656
G1 X123.715 Y117.405 E.01781
G1 X123.846 Y117.018 E.01433
;WIDTH:0.461634
G1 X124.156 Y116.56 E.01926
;WIDTH:0.46493
G1 X124.543 Y116.238 E.01767
G1 X124.91 Y116.06 E.01431
;WIDTH:0.461114
G1 X125.444 Y115.961 E.01889
;WIDTH:0.456069
G1 X125.935 Y116.003 E.01693
;WIDTH:0.46709
G1 X126.32 Y116.139 E.0144
G1 X126.747 Y116.425 E.01813
;WIDTH:0.456794
G1 X127.092 Y116.829 E.01828
;WIDTH:0.466989
G1 X127.263 Y117.189 E.01405
G1 X127.362 Y117.585 E.01439
;WIDTH:0.45646
G1 X127.367 Y117.72 E.00465
;WIDTH:0.45708
G1 X127.334 Y118.09 E.01279
M204 S1000
;WIPE_START
G1 F8640
G1 X127.32 Y118.249 E-.03686
G1 X127.185 Y118.616 E-.09029
G1 X126.93 Y119.015 E-.10934
G1 X126.551 Y119.347 E-.11634
G1 X126.189 Y119.536 E-.09429
G1 X125.664 Y119.654 E-.12425
G1 X125.146 Y119.622 E-.11984
G1 X124.758 Y119.496 E-.0942
G1 X124.705 Y119.462 E-.01459
;WIPE_END
G1 Z.6 F720
G1 X125.253 Y119.201 F10800
G1 Z.2 F720
G1 E.8 F2100
M204 S800
;WIDTH:0.454961
G1 F1200
G1 X125.101 Y119.187 E.00523
;WIDTH:0.454816
G1 X124.599 Y118.915 E.01955
G1 X124.241 Y118.47 E.01956
;WIDTH:0.462036
G1 X124.188 Y118.342 E.00483
G1 X124.08 Y117.84 E.01789
;WIDTH:0.455968
G1 X124.165 Y117.319 E.01813
;WIDTH:0.454516
G1 X124.438 Y116.86 E.01828
G1 X124.892 Y116.514 E.01954
;WIDTH:0.454802
G1 X125.428 Y116.372 E.01899
G1 X125.926 Y116.425 E.01715
;WIDTH:0.45666
G1 X126.387 Y116.657 E.01775
;WIDTH:0.456794
G1 X126.766 Y117.084 E.01965
;WIDTH:0.456934
G1 X126.95 Y117.625 E.01967
;WIDTH:0.45708
G1 X126.91 Y118.194 E.01964
;WIDTH:0.457227
G1 X126.651 Y118.704 E.01971
G1 X126.214 Y119.072 E.01968
;WIDTH:0.454961
G1 X125.669 Y119.242 E.01956
G1 X125.312 Y119.207 E.01229
M204 S1000
G1 X125.174 Y119.332 F10800
; stop printing object adapter2.stl id:1 copy 0
; printing object adapter2.stl id:3 copy 0
;WIPE_START
G1 F8640
G1 X125.101 Y119.187 E-.04894
G1 X124.599 Y118.915 E-.13183
G1 X124.241 Y118.47 E-.13188
G1 X124.188 Y118.342 E-.03199
G1 X124.08 Y117.84 E-.11857
G1 X124.165 Y117.319 E-.12189
G1 X124.438 Y116.86 E-.12331
G1 X124.753 Y116.62 E-.09159
;WIPE_END
G1 Z.6 F720
G1 X139.307 Y117.841 F10800
G1 Z.2 F720
G1 E.8 F2100
M204 S800
;WIDTH:0.45708
G1 F1200
G1 X139.299 Y117.94 E.00342
;WIDTH:0.466875
G1 X139.163 Y118.307 E.0138
G1 X138.908 Y118.706 E.01669
;WIDTH:0.463745
G1 X138.529 Y119.038 E.01763
G1 X138.167 Y119.227 E.01429
;WIDTH:0.462797
G1 X137.642 Y119.345 E.01879
;WIDTH:0.464061
G1 X137.125 Y119.312 E.01814
G1 X136.737 Y119.187 E.01427
;WIDTH:0.462425
G1 X136.281 Y118.892 E.01894
;WIDTH:0.464367
G1 X135.945 Y118.504 E.01799
G1 X135.761 Y118.139 E.01432
;WIDTH:0.462036
G1 X135.652 Y117.602 E.0191
;WIDTH:0.464656
G1 X135.694 Y117.096 E.01781
G1 X135.825 Y116.709 E.01433
;WIDTH:0.461634
G1 X136.135 Y116.251 E.01926
;WIDTH:0.46493
G1 X136.521 Y115.929 E.01764
G1 X136.889 Y115.751 E.01434
;WIDTH:0.461114
G1 X137.423 Y115.652 E.01889
;WIDTH:0.456069
G1 X137.913 Y115.694 E.01689
;WIDTH:0.46709
G1 X138.299 Y115.83 E.01443
G1 X138.726 Y116.116 E.01813
;WIDTH:0.456794
G1 X139.071 Y116.52 E.01828
;WIDTH:0.466989
G1 X139.242 Y116.88 E.01405
G1 X139.34 Y117.276 E.01438
;WIDTH:0.45646
G1 X139.346 Y117.411 E.00465
;WIDTH:0.45708
G1 X139.313 Y117.781 E.01279
M204 S1000
;WIPE_START
G1 F8640
G1 X139.299 Y117.94 E-.03686
G1 X139.163 Y118.307 E-.09037
G1 X138.908 Y118.706 E-.10934
G1 X138.529 Y119.038 E-.11634
G1 X138.167 Y119.227 E-.09429
G1 X137.642 Y119.345 E-.12425
G1 X137.125 Y119.312 E-.11962
G1 X136.737 Y119.187 E-.09412
G1 X136.683 Y119.152 E-.01481
;WIPE_END
G1 Z.6 F720
G1 X137.231 Y118.892 F10800
G1 Z.2 F720
G1 E.8 F2100
M204 S800
;WIDTH:0.454961
G1 F1200
G1 X137.08 Y118.878 E.0052
;WIDTH:0.454816
G1 X136.577 Y118.606 E.01958
G1 X136.22 Y118.161 E.01954
;WIDTH:0.462036
G1 X136.167 Y118.033 E.00483
G1 X136.059 Y117.531 E.01789
;WIDTH:0.455968
G1 X136.143 Y117.01 E.01812
;WIDTH:0.454516
G1 X136.416 Y116.551 E.01828
G1 X136.87 Y116.205 E.01954
;WIDTH:0.454802
G1 X137.407 Y116.063 E.01902
G1 X137.904 Y116.116 E.01712
;WIDTH:0.45666
G1 X138.366 Y116.348 E.01779
;WIDTH:0.456794
G1 X138.745 Y116.775 E.01965
;WIDTH:0.456934
G1 X138.929 Y117.316 E.01967
;WIDTH:0.45708
G1 X138.888 Y117.885 E.01965
;WIDTH:0.457227
G1 X138.63 Y118.395 E.01969
G1 X138.193 Y118.763 E.01968
;WIDTH:0.454961
G1 X137.648 Y118.933 E.01956
G1 X137.291 Y118.898 E.01229
M204 S1000
G1 X137.152 Y119.023 F10800
; stop printing object adapter2.stl id:3 copy 0
; printing object adapter2.stl id:2 copy 0
;WIPE_START
G1 F8640
G1 X137.08 Y118.878 E-.04894
G1 X136.577 Y118.606 E-.13204
G1 X136.22 Y118.161 E-.13173
G1 X136.167 Y118.033 E-.03199
G1 X136.059 Y117.531 E-.11857
G1 X136.143 Y117.01 E-.12185
G1 X136.416 Y116.551 E-.12331
G1 X136.731 Y116.311 E-.09157
;WIPE_END
G1 Z.6 F720
G1 X139.896 Y105.707 F10800
G1 Z.2 F720
G1 E.8 F2100
M204 S800
;WIDTH:0.45708
G1 F1200
G1 X139.887 Y105.806 E.00342
;WIDTH:0.466875
G1 X139.752 Y106.173 E.01379
G1 X139.497 Y106.572 E.01669
;WIDTH:0.463745
G1 X139.118 Y106.904 E.01763
G1 X138.756 Y107.093 E.01429
;WIDTH:0.462797
G1 X138.231 Y107.211 E.01879
;WIDTH:0.464061
G1 X137.714 Y107.179 E.01814
G1 X137.325 Y107.053 E.01432
;WIDTH:0.462425
G1 X136.87 Y106.758 E.01892
;WIDTH:0.464367
G1 X136.534 Y106.37 E.01799
G1 X136.35 Y106.006 E.01429
;WIDTH:0.462036
G1 X136.241 Y105.468 E.01913
;WIDTH:0.464656
G1 X136.282 Y104.962 E.0178
G1 X136.413 Y104.576 E.01429
;WIDTH:0.461634
G1 X136.723 Y104.117 E.01928
;WIDTH:0.46493
G1 X137.11 Y103.795 E.01767
G1 X137.477 Y103.618 E.0143
;WIDTH:0.461114
G1 X138.012 Y103.518 E.01893
;WIDTH:0.456069
G1 X138.502 Y103.56 E.01689
;WIDTH:0.46709
G1 X138.887 Y103.696 E.0144
G1 X139.314 Y103.983 E.01815
;WIDTH:0.456794
G1 X139.66 Y104.387 E.01831
;WIDTH:0.466989
G1 X139.83 Y104.746 E.01401
G1 X139.929 Y105.142 E.01439
;WIDTH:0.45646
G1 X139.935 Y105.277 E.00465
;WIDTH:0.45708
G1 X139.902 Y105.647 E.01279
M204 S1000
;WIPE_START
G1 F8640
G1 X139.887 Y105.806 E-.03688
G1 X139.752 Y106.173 E-.09029
G1 X139.497 Y106.572 E-.10934
G1 X139.118 Y106.904 E-.11634
G1 X138.756 Y107.093 E-.09429
G1 X138.231 Y107.211 E-.12425
G1 X137.714 Y107.179 E-.11961
G1 X137.325 Y107.053 E-.09442
G1 X137.272 Y107.019 E-.01458
;WIPE_END
G1 Z.6 F720
G1 X137.82 Y106.759 F10800
G1 Z.2 F720
M73 Q3 S12
G1 E.8 F2100
M204 S800
;WIDTH:0.454961
G1 F1200
G1 X137.668 Y106.744 E.00523
;WIDTH:0.454816
G1 X137.166 Y106.473 E.01954
G1 X136.809 Y106.028 E.01954
;WIDTH:0.462036
G1 X136.756 Y105.899 E.00486
G1 X136.648 Y105.397 E.01789
;WIDTH:0.455968
G1 X136.732 Y104.877 E.01809
;WIDTH:0.454516
G1 X137.005 Y104.417 E.01831
M73 P3 R12
G1 X137.459 Y104.071 E.01954
;WIDTH:0.454802
G1 X137.995 Y103.929 E.01899
G1 X138.493 Y103.982 E.01715
;WIDTH:0.45666
G1 X138.954 Y104.214 E.01775
;WIDTH:0.456794
G1 X139.334 Y104.641 E.01967
;WIDTH:0.456934
G1 X139.518 Y105.182 E.01967
;WIDTH:0.45708
G1 X139.477 Y105.752 E.01968
;WIDTH:0.457227
G1 X139.218 Y106.261 E.01967
G1 X138.781 Y106.629 E.01968
;WIDTH:0.454961
G1 X138.237 Y106.799 E.01953
G1 X137.88 Y106.764 E.01229
M204 S1000
G1 X137.741 Y106.889 F10800
; stop printing object adapter2.stl id:2 copy 0
M106 S84.15
;LAYER_CHANGE
;Z:0.35
;HEIGHT:0.15
;BEFORE_LAYER_CHANGE
G92 E0.0
;0.35


;WIPE_START
G1 F8640
G1 X137.668 Y106.744 E-.04917
G1 X137.166 Y106.473 E-.13172
G1 X136.809 Y106.028 E-.13173
G1 X136.756 Y105.899 E-.0322
G1 X136.648 Y105.397 E-.11857
G1 X136.732 Y104.877 E-.12163
G1 X137.005 Y104.417 E-.12351
G1 X137.32 Y104.177 E-.09147
;WIPE_END
G1 Z.6 F720
;AFTER_LAYER_CHANGE
;0.35
M104 S210 ; set temperature
G1 X137.435 Y100.332 F10800
G1 Z.35 F720
G1 E.8 F2100
;TYPE:Skirt/Brim
;WIDTH:0.42
G1 F2877
G1 X138.76 Y100.372 E.03206
G1 X139.732 Y100.602 E.02416
G1 X140.639 Y101.02 E.02415
G1 X141.456 Y101.617 E.02447
G1 X142.209 Y102.466 E.02745
G1 X142.556 Y103.034 E.0161
G1 X142.883 Y103.816 E.0205
G1 X143.046 Y104.462 E.01611
G1 X143.127 Y105.275 E.01976
G1 X142.521 Y117.924 E.30627
G1 X142.333 Y118.926 E.02466
G1 X141.895 Y119.965 E.02727
G1 X141.323 Y120.783 E.02414
G1 X140.455 Y121.582 E.02853
G1 X139.285 Y122.212 E.03214
G1 X137.991 Y122.515 E.03214
G1 X125.346 Y122.845 E.30592
G1 X124.21 Y122.675 E.02778
G1 X123.115 Y122.237 E.02852
G1 X122.175 Y121.578 E.02776
G1 X121.391 Y120.697 E.02852
