; generated by PrusaSlicer 2.6.1+MacOS-arm64 on 2023-12-12 at 18:16:16 UTC


;
;
; 

; external perimeters extrusion width = 0.60mm
; perimeters extrusion width = 0.50mm
; infill extrusion width = 0.50mm
; solid infill extrusion width = 0.50mm
; top infill extrusion width = 0.45mm
; first layer extrusion width = 0.42mm

M73 P0 R24
M73 Q0 S24
M201 X1000 Y1000 Z200 E5000 ; sets maximum accelerations, mm/sec^2
M203 X200 Y200 Z12 E120 ; sets maximum feedrates, mm / sec
M204 S1250 T1250 ; sets acceleration (S) and retract acceleration (R), mm/sec^2
M205 X8.00 Y8.00 Z0.40 E4.50 ; sets the jerk limits, mm/sec
M205 S0 T0 ; sets the minimum extruding and travel feed rate, mm/sec
;TYPE:Custom
M862.3 P "MK3S" ; printer model check
M862.1 P0.4 ; nozzle diameter check
M115 U3.12.2 ; tell printer latest fw version
G90 ; use absolute coordinates
M83 ; extruder relative mode
M104 S215 ; set extruder temp
M140 S60 ; set bed temp
M190 S60 ; wait for bed temp
M109 S215 ; wait for extruder temp
G28 W ; home all without mesh bed level
G80 ; mesh bed leveling

G1 Z0.2 F720
G1 Y-3 F1000 ; go outside print area
G92 E0
G1 X60 E9 F1000 ; intro line
G1 X100 E12.5 F1000 ; intro line

G92 E0
M221 S95

; Don't change E values below. Excessive value can damage the printer.

M907 E538 ; set extruder motor current
G21 ; set units to millimeters
G90 ; use absolute coordinates
M83 ; use relative distances for extrusion
M900 K0.05 ; Filament gcode LA 1.5
M900 K30 ; Filament gcode LA 1.0
M107
;LAYER_CHANGE
;Z:0.2
;HEIGHT:0.2
;BEFORE_LAYER_CHANGE
G92 E0.0
;0.2


M73 P0 R23
G1 E-.8 F2100
G1 Z.4 F720
;AFTER_LAYER_CHANGE
;0.2
G1 X114.996 Y89.995 F10800
G1 Z.2 F720
G1 E.8 F2100
M204 S800
;TYPE:Skirt/Brim
;WIDTH:0.42
G1 F1200
G1 X116.119 Y88.865 E.04995
G1 X117.733 Y88.234 E.05434
G1 X132.267 Y88.234 E.4557
G1 X133.881 Y88.865 E.05434
G1 X134.996 Y89.986 E.04957
G1 X135.76 Y90.935 E.0382
G1 X136.608 Y92.248 E.04901
G1 X137.15 Y93.315 E.03752
G1 X146.256 Y115.964 E.76539
M73 Q0 S23
G1 X146.427 Y116.849 E.02826
G1 X146.427 Y119.389 E.07964
G1 X146.035 Y120.696 E.04278
G1 X144.99 Y121.573 E.04277
G1 X144.05 Y121.766 E.03009
G1 X105.95 Y121.766 E1.1946
G1 X104.643 Y121.375 E.04277
G1 X103.767 Y120.329 E.04278
G1 X103.573 Y119.389 E.03009
G1 X103.573 Y116.849 E.07964
G1 X103.744 Y115.964 E.02826
G1 X112.825 Y93.371 E.76347
G1 X113.672 Y91.776 E.05662
G1 X114.96 Y90.044 E.06768
M204 S1000
; printing object motor_case_extender.stl id:0 copy 0
;WIPE_START
G1 F8640
G1 X116.119 Y88.865 E-.38175
G1 X117.733 Y88.234 E-.40015
G1 X117.811 Y88.234 E-.0181
;WIPE_END
G1 Z.6 F720
G1 X133.613 Y117.152 F10800
G1 Z.2 F720
M73 Q1 S23
G1 E.8 F2100
M204 S800
;TYPE:Perimeter
;WIDTH:0.419999
G1 F1200
G1 X133.646 Y117.303 E.00485
G1 X133.831 Y117.529 E.00916
G1 X134.162 Y117.636 E.01091
G1 X143.263 Y117.636 E.28535
G1 X143.263 Y118.602 E.03029
M73 P1 R23
G1 X106.737 Y118.602 E1.14525
G1 X106.737 Y117.636 E.03029
G1 X115.838 Y117.636 E.28535
G1 X116.169 Y117.529 E.01091
G1 X116.354 Y117.303 E.00916
G1 X116.404 Y117.071 E.00744
G1 X116.404 Y104.42 E.39666
G1 X116.345 Y104.169 E.00808
G1 X116.08 Y103.707 E.0167
G1 X115.698 Y102.933 E.02706
G1 X115.385 Y102.136 E.02685
G1 X115.14 Y101.316 E.02683
G1 X114.964 Y100.478 E.02685
G1 X114.861 Y99.635 E.02663
G1 X114.839 Y98.338 E.04067
G1 X114.913 Y97.498 E.02644
G1 X115.162 Y96.23 E.04052
G1 X115.412 Y95.417 E.02667
G1 X115.732 Y94.622 E.02687
G1 X116.117 Y93.858 E.02682
G1 X116.566 Y93.128 E.02687
G1 X117.074 Y92.439 E.02684
G1 X117.639 Y91.794 E.02689
G1 X118.048 Y91.398 E.01785
G1 X131.952 Y91.398 E.43595
G1 X132.361 Y91.794 E.01785
G1 X132.926 Y92.439 E.02689
G1 X133.434 Y93.128 E.02684
G1 X133.883 Y93.858 E.02687
G1 X134.268 Y94.622 E.02682
G1 X134.588 Y95.417 E.02687
G1 X134.839 Y96.234 E.0268
G1 X135.02 Y97.065 E.02667
G1 X135.161 Y98.344 E.04035
G1 X135.139 Y99.634 E.04045
G1 X135.036 Y100.478 E.02666
G1 X134.86 Y101.316 E.02685
G1 X134.615 Y102.136 E.02683
G1 X134.302 Y102.933 E.02685
G1 X133.963 Y103.619 E.02399
G1 X133.671 Y104.138 E.01867
G1 X133.596 Y104.42 E.00915
G1 X133.601 Y117.094 E.39738
M204 S1000
G1 X133.973 Y117.071 F10800
M204 S800
;TYPE:External perimeter
G1 F1200
G1 X134.051 Y117.223 E.00536
G1 X134.162 Y117.259 E.00366
G1 X143.64 Y117.259 E.29718
G1 X143.64 Y118.979 E.05393
G1 X106.36 Y118.979 E1.16889
G1 X106.36 Y117.259 E.05393
G1 X115.838 Y117.259 E.29718
G1 X115.949 Y117.223 E.00366
G1 X116.027 Y117.071 E.00536
G1 X116.027 Y105.213 E.3718
G1 X116.002 Y104.326 E.02782
G1 X115.748 Y103.884 E.01598
G1 X115.353 Y103.086 E.02792
G1 X115.028 Y102.26 E.02783
G1 X114.774 Y101.409 E.02785
G1 X114.592 Y100.539 E.02787
G1 X114.484 Y99.662 E.02771
G1 X114.462 Y98.324 E.04196
G1 X114.539 Y97.445 E.02767
G1 X114.796 Y96.138 E.04176
G1 X115.056 Y95.291 E.02778
G1 X115.388 Y94.467 E.02785
G1 X115.788 Y93.674 E.02785
G1 X116.253 Y92.917 E.02786
G1 X116.78 Y92.202 E.02785
G1 X117.365 Y91.534 E.02784
G1 X117.896 Y91.021 E.02315
G1 X132.104 Y91.021 E.44548
G1 X132.635 Y91.534 E.02315
G1 X133.22 Y92.202 E.02784
G1 X133.747 Y92.917 E.02785
G1 X134.212 Y93.674 E.02786
G1 X134.612 Y94.467 E.02785
G1 X134.944 Y95.291 E.02785
G1 X135.205 Y96.138 E.02779
G1 X135.393 Y97.004 E.02779
G1 X135.538 Y98.326 E.0417
G1 X135.516 Y99.66 E.04183
G1 X135.408 Y100.539 E.02777
G1 X135.226 Y101.409 E.02787
G1 X134.972 Y102.26 E.02785
G1 X134.647 Y103.086 E.02783
G1 X133.973 Y104.42 E.04686
G1 X133.973 Y117.011 E.39478
M204 S1000
G1 X133.856 Y117.196 F10800
;WIPE_START
G1 F8640
G1 X134.051 Y117.223 E-.05216
G1 X134.162 Y117.259 E-.02694
G1 X137.284 Y117.259 E-.7209
;WIPE_END
G1 Z.6 F720
G1 X118.009 Y106.709 F10800
G1 Z.2 F720
G1 E.8 F2100
M204 S800
;TYPE:Perimeter
G1 F1200
G1 X118.072 Y106.493 E.00705
G1 X118.271 Y106.305 E.00858
G1 X118.548 Y106.232 E.00898
G1 X131.452 Y106.232 E.4046
G1 X131.729 Y106.305 E.00898
G1 X131.928 Y106.493 E.00858
G1 X132.017 Y106.798 E.00996
G1 X132.017 Y117.071 E.3221
G1 X131.967 Y117.303 E.00744
M73 P2 R23
M73 Q2 S23
G1 X131.783 Y117.529 E.00914
G1 X131.452 Y117.636 E.01091
G1 X118.548 Y117.636 E.4046
G1 X118.217 Y117.529 E.01091
G1 X118.033 Y117.303 E.00914
G1 X117.983 Y117.071 E.00744
G1 X117.992 Y106.767 E.32307
M204 S1000
G1 X118.36 Y106.798 F10800
M204 S800
;TYPE:External perimeter
G1 F1200
G1 X118.39 Y106.696 E.00333
G1 X118.537 Y106.61 E.00534
G1 X131.452 Y106.609 E.40494
G1 X131.544 Y106.634 E.00299
G1 X131.61 Y106.696 E.00284
G1 X131.64 Y106.798 E.00333
G1 X131.64 Y117.071 E.3221
G1 X131.562 Y117.223 E.00536
G1 X131.452 Y117.259 E.00363
G1 X118.548 Y117.259 E.4046
G1 X118.438 Y117.223 E.00363
G1 X118.36 Y117.071 E.00536
G1 X118.36 Y106.858 E.32022
M204 S1000
G1 X118.28 Y106.729 F10800
;WIPE_START
G1 F8640
G1 X118.39 Y106.696 E-.03804
G1 X118.537 Y106.61 E-.03932
G1 X121.667 Y106.61 E-.72264
;WIPE_END
G1 Z.6 F720
G1 X122.264 Y101.677 F10800
G1 Z.2 F720
G1 E.8 F2100
M204 S800
;TYPE:Perimeter
G1 F1200
G1 X121.691 Y100.988 E.0281
G1 X121.382 Y100.426 E.02011
G1 X121.166 Y99.809 E.0205
G1 X121.056 Y99.179 E.02005
G1 X121.098 Y98.134 E.03279
G1 X121.229 Y97.604 E.01712
G1 X121.618 Y96.757 E.02922
G1 X122.005 Y96.223 E.02068
G1 X122.696 Y95.596 E.02926
G1 X123.261 Y95.257 E.02066
G1 X123.854 Y95.024 E.01998
G1 X124.773 Y94.863 E.02925
G1 X125.432 Y94.878 E.02067
G1 X126.34 Y95.09 E.02924
G1 X126.941 Y95.362 E.02068
G1 X127.693 Y95.914 E.02925
G1 X128.139 Y96.399 E.02066
G1 X128.486 Y96.934 E.01999
G1 X128.736 Y97.563 E.02122
G1 X128.86 Y97.941 E.01247
G1 X128.958 Y98.747 E.02546
G1 X128.919 Y99.387 E.0201
G1 X128.772 Y100.024 E.0205
G1 X128.528 Y100.615 E.02005
G1 X128.213 Y101.091 E.0179
G1 X127.917 Y101.491 E.0156
G1 X127.304 Y102.034 E.02568
G1 X126.739 Y102.374 E.02068
G1 X126.146 Y102.607 E.01998
G1 X125.227 Y102.767 E.02925
G1 X124.275 Y102.707 E.02991
G1 X123.638 Y102.534 E.0207
G1 X122.807 Y102.111 E.02924
G1 X122.308 Y101.718 E.01992
M204 S1000
G1 X122.561 Y101.438 F10800
M204 S800
;TYPE:External perimeter
G1 F1200
G1 X121.983 Y100.749 E.0282
G1 X121.716 Y100.251 E.01772
G1 X121.523 Y99.688 E.01866
G1 X121.428 Y99.119 E.01809
G1 X121.464 Y98.225 E.02805
G1 X121.595 Y97.694 E.01715
G1 X121.959 Y96.918 E.02687
G1 X122.307 Y96.449 E.01831
G1 X122.946 Y95.878 E.02687
G1 X123.45 Y95.583 E.01831
G1 X123.988 Y95.376 E.01807
G1 X124.833 Y95.235 E.02686
G1 X125.417 Y95.255 E.01832
G1 X126.25 Y95.456 E.02687
G1 X126.779 Y95.703 E.01831
G1 X127.467 Y96.215 E.02689
G1 X127.857 Y96.65 E.01832
G1 X128.167 Y97.136 E.01807
G1 X128.486 Y97.986 E.02847
G1 X128.584 Y98.795 E.02555
G1 X128.543 Y99.357 E.01767
G1 X128.405 Y99.935 E.01863
G1 X128.181 Y100.468 E.01813
G1 X127.667 Y101.209 E.02828
G1 X127.054 Y101.752 E.02568
G1 X126.55 Y102.047 E.01831
G1 X126.012 Y102.254 E.01807
G1 X125.167 Y102.395 E.02686
G1 X124.305 Y102.331 E.0271
G1 X123.743 Y102.172 E.01831
G1 X122.982 Y101.777 E.02688
G1 X122.608 Y101.476 E.01505
M204 S1000
G1 X122.177 Y101.549 F10800
;WIPE_START
G1 F8640
G1 X121.983 Y100.749 E-.22137
G1 X121.716 Y100.251 E-.13047
G1 X121.523 Y99.688 E-.13742
G1 X121.428 Y99.119 E-.1332
G1 X121.459 Y98.351 E-.17754
;WIPE_END
G1 Z.6 F720
G1 X131.654 Y91.568 F10800
G1 Z.2 F720
G1 E.8 F2100
M204 S800
;TYPE:Solid infill
;WIDTH:0.421381
G1 F1200
G1 X132.121 Y92.036 E.02081
G1 X132.661 Y92.652 E.02578
G1 X133.153 Y93.318 E.02606
G1 X133.599 Y94.048 E.02692
G1 X131.288 Y91.737 E.10285
G1 X130.753 Y91.737 E.01684
G1 X134.081 Y95.065 E.14811
G1 X134.268 Y95.53 E.01577
G1 X134.382 Y95.902 E.01224
G1 X130.218 Y91.737 E.18534
G1 X129.682 Y91.737 E.01687
G1 X134.579 Y96.635 E.21796
G1 X134.685 Y97.119 E.01559
G1 X134.704 Y97.295 E.00557
G1 X129.147 Y91.737 E.24733
G1 X128.612 Y91.737 E.01684
G1 X134.77 Y97.896 E.27408
G1 X134.819 Y98.48 E.01844
G1 X128.077 Y91.737 E.30007
G1 X127.541 Y91.737 E.01687
G1 X134.81 Y99.006 E.3235
G1 X134.801 Y99.533 E.01659
G1 X127.006 Y91.737 E.34693
G1 X126.471 Y91.737 E.01684
G1 X134.75 Y100.017 E.36847
G1 X134.687 Y100.488 E.01495
G1 X125.936 Y91.737 E.38946
G1 X125.401 Y91.737 E.01684
G1 X134.594 Y100.931 E.40915
G1 X134.492 Y101.364 E.014
G1 X124.865 Y91.737 E.42844
G1 X124.33 Y91.737 E.01684
G1 X134.369 Y101.776 E.44678
G1 X134.234 Y102.177 E.01332
M73 P3 R23
M73 Q3 S23
G1 X123.795 Y91.737 E.4646
G1 X123.26 Y91.737 E.01684
G1 X126.238 Y94.715 E.13253
G1 X125.538 Y94.551 E.02262
G1 X122.724 Y91.737 E.12523
G1 X122.189 Y91.737 E.01684
G1 X124.982 Y94.53 E.1243
G1 X124.732 Y94.526 E.00787
G1 X124.483 Y94.566 E.00794
G1 X121.654 Y91.737 E.1259
G1 X121.119 Y91.737 E.01684
G1 X124.022 Y94.641 E.12922
G1 X123.74 Y94.704 E.00909
G1 X123.604 Y94.758 E.0046
G1 X120.583 Y91.737 E.13445
G1 X120.048 Y91.737 E.01684
G1 X123.221 Y94.91 E.14121
G1 X123.099 Y94.958 E.00413
G1 X122.872 Y95.096 E.00836
G1 X119.513 Y91.737 E.14949
G1 X118.978 Y91.737 E.01684
G1 X122.539 Y95.298 E.15848
G1 X122.246 Y95.541 E.01198
G1 X118.443 Y91.737 E.16927
G1 X118.186 Y91.737 E.00809
G1 X118.044 Y91.874 E.00621
G1 X121.962 Y95.792 E.17437
G1 X121.7 Y96.065 E.01191
G1 X117.781 Y92.147 E.17439
G1 X117.531 Y92.432 E.01193
G1 X121.472 Y96.372 E.17537
G1 X121.357 Y96.527 E.00607
G1 X121.272 Y96.707 E.00626
G1 X117.287 Y92.722 E.17735
G1 X117.059 Y93.03 E.01206
G1 X121.101 Y97.071 E.17986
G1 X120.929 Y97.435 E.01267
G1 X116.834 Y93.34 E.18224
G1 X116.63 Y93.671 E.01224
G1 X120.821 Y97.862 E.18652
G1 X120.746 Y98.181 E.01031
G1 X120.741 Y98.317 E.00428
G1 X116.426 Y94.003 E.19201
G1 X116.245 Y94.357 E.01251
G1 X120.72 Y98.832 E.19916
G1 X120.709 Y99.11 E.00876
G1 X120.755 Y99.402 E.0093
G1 X116.066 Y94.713 E.20868
G1 X115.909 Y95.091 E.01288
G1 X121.18 Y100.362 E.23458
M204 S1000
;WIPE_START
G1 F8640
G1 X118.73 Y97.912 E-.8
;WIPE_END
G1 Z.6 F720
G1 X128.81 Y97.288 F10800
G1 Z.2 F720
G1 E.8 F2100
M204 S800
G1 F1200
G1 X134.083 Y102.561 E.23467
G1 X133.922 Y102.935 E.01281
G1 X129.238 Y98.251 E.20846
G1 X129.299 Y98.744 E.01563
G1 X129.293 Y98.841 E.00306
G1 X133.745 Y103.293 E.19813
G1 X133.563 Y103.647 E.01253
G1 X129.258 Y99.341 E.19161
G1 X129.247 Y99.495 E.00486
G1 X129.173 Y99.792 E.00963
G1 X133.369 Y103.988 E.18674
G1 X133.335 Y104.048 E.00217
G1 X133.258 Y104.349 E.00978
G1 X133.258 Y104.412 E.00198
G1 X129.065 Y100.219 E.18661
G1 X128.903 Y100.592 E.0128
G1 X133.258 Y104.947 E.19382
G1 X133.258 Y105.483 E.01687
G1 X128.723 Y100.947 E.20185
G1 X128.505 Y101.264 E.01211
G1 X133.258 Y106.018 E.21155
G1 X133.258 Y106.553 E.01684
G1 X128.287 Y101.582 E.22123
G1 X128.022 Y101.852 E.01191
G1 X133.258 Y107.088 E.23302
G1 X133.258 Y107.623 E.01684
G1 X132.334 Y106.699 E.04112
G1 X132.22 Y106.31 E.01276
G1 X131.901 Y106.008 E.01382
G1 X131.533 Y105.898 E.01209
G1 X127.738 Y102.103 E.16889
G1 X127.448 Y102.348 E.01195
G1 X130.992 Y105.893 E.15774
G1 X130.457 Y105.893 E.01684
G1 X127.11 Y102.546 E.14896
G1 X126.764 Y102.735 E.01241
G1 X129.922 Y105.893 E.14054
G1 X129.387 Y105.893 E.01684
G1 X126.369 Y102.876 E.13429
G1 X126.112 Y102.967 E.00858
G1 X125.951 Y102.992 E.00513
G1 X128.852 Y105.893 E.12911
G1 X128.316 Y105.893 E.01687
G1 X125.486 Y103.063 E.12595
G1 X125.142 Y103.115 E.01095
G1 X124.991 Y103.103 E.00477
G1 X127.781 Y105.893 E.12417
G1 X127.246 Y105.893 E.01684
G1 X124.411 Y103.058 E.12617
G1 X124.234 Y103.044 E.00559
G1 X123.727 Y102.909 E.01651
G1 X126.711 Y105.893 E.1328
G1 X126.175 Y105.893 E.01687
M73 Q4 S23
G1 X115.755 Y95.473 E.46373
G1 X115.625 Y95.878 E.01339
M73 P4 R23
G1 X125.64 Y105.893 E.44571
G1 X125.105 Y105.893 E.01684
G1 X115.499 Y96.287 E.42751
G1 X115.409 Y96.732 E.01429
G1 X124.57 Y105.893 E.4077
G1 X124.034 Y105.893 E.01687
G1 X115.322 Y97.18 E.38774
G1 X115.242 Y97.635 E.01454
G1 X123.499 Y105.893 E.36749
G1 X122.964 Y105.893 E.01684
G1 X115.198 Y98.127 E.34562
G1 X115.179 Y98.35 E.00704
G1 X115.184 Y98.648 E.00938
G1 X122.429 Y105.893 E.32243
G1 X121.894 Y105.893 E.01684
G1 X115.193 Y99.192 E.29822
G1 X115.217 Y99.752 E.01764
M73 P4 R22
G1 X121.358 Y105.893 E.2733
G1 X120.823 Y105.893 E.01684
G1 X115.292 Y100.362 E.24615
G1 X115.427 Y101.032 E.02151
G1 X120.288 Y105.893 E.21633
G1 X119.753 Y105.893 E.01684
G1 X115.63 Y101.77 E.18349
G1 X115.706 Y102.025 E.00837
G1 X115.937 Y102.612 E.01985
G1 X119.218 Y105.893 E.14602
G1 X118.683 Y105.894 E.01684
G1 X116.439 Y103.649 E.09989
G1 X116.657 Y104.031 E.01384
G1 X116.742 Y104.348 E.01033
G1 X116.742 Y104.487 E.00437
G1 X118.224 Y105.97 E.06598
G1 X118.101 Y106.006 E.00403
G1 X117.908 Y106.189 E.00837
G1 X116.742 Y105.023 E.05189
G1 X116.742 Y105.558 E.01684
G1 X117.715 Y106.531 E.0433
G1 X117.643 Y106.776 E.00804
G1 X117.643 Y106.995 E.00689
G1 X116.742 Y106.093 E.04012
G1 X116.742 Y106.629 E.01687
G1 X117.643 Y107.53 E.0401
G1 X117.643 Y108.065 E.01684
G1 X116.742 Y107.164 E.0401
G1 X116.742 Y107.699 E.01684
G1 X117.643 Y108.601 E.04012
G1 X117.643 Y109.136 E.01684
G1 X116.742 Y108.235 E.0401
G1 X116.742 Y108.77 E.01684
G1 X117.643 Y109.671 E.0401
G1 X117.643 Y110.206 E.01684
G1 X116.742 Y109.305 E.0401
G1 X116.742 Y109.841 E.01687
G1 X117.643 Y110.741 E.04008
G1 X117.643 Y111.277 E.01687
G1 X116.742 Y110.376 E.0401
G1 X116.743 Y110.911 E.01684
G1 X117.643 Y111.812 E.04008
G1 X117.643 Y112.347 E.01684
G1 X116.743 Y111.446 E.04008
G1 X116.743 Y111.982 E.01687
G1 X117.643 Y112.882 E.04005
G1 X117.643 Y113.418 E.01687
G1 X116.743 Y112.517 E.04008
G1 X116.743 Y113.052 E.01684
G1 X117.643 Y113.953 E.04008
G1 X117.643 Y114.488 E.01684
G1 X116.743 Y113.588 E.04005
G1 X116.743 Y114.123 E.01684
G1 X117.643 Y115.023 E.04005
G1 X117.643 Y115.558 E.01684
G1 X116.743 Y114.658 E.04005
G1 X116.743 Y115.194 E.01687
G1 X117.643 Y116.094 E.04005
G1 X117.643 Y116.629 E.01684
G1 X116.574 Y115.559 E.0476
M204 S1000
;WIPE_START
G1 F8640
G1 X117.643 Y116.629 E-.34924
G1 X117.643 Y116.094 E-.12353
G1 X116.743 Y115.194 E-.29389
G1 X116.743 Y115.05 E-.03334
;WIPE_END
G1 Z.6 F720
G1 X132.187 Y107.087 F10800
G1 Z.2 F720
M73 Q4 S22
G1 E.8 F2100
M204 S800
G1 F1200
G1 X133.258 Y108.158 E.04766
G1 X133.258 Y108.693 E.01684
G1 X132.357 Y107.792 E.0401
G1 X132.357 Y108.328 E.01687
G1 X133.258 Y109.229 E.0401
G1 X133.258 Y109.764 E.01684
G1 X132.357 Y108.863 E.0401
G1 X132.357 Y109.398 E.01684
G1 X133.258 Y110.299 E.0401
G1 X133.257 Y110.834 E.01684
G1 X132.357 Y109.933 E.04008
